X:1
T:King Cadence
T:KING CADENCE
T:The Bethany Drumline's 
%%score [ 1 2 3 4 ]
L:1/8
Q:1/4=111
M:4/4
K:C
V:1 perc nm="Snares" snm="S"
K:none
I:percmap A A 61 normal
I:percmap B B 63 normal
I:percmap F F 72 normal
V:2 perc nm="Tenors" snm="T"
K:none
I:percmap A A 61 normal
I:percmap D D 47 normal
I:percmap F F 60 normal
I:percmap c c 62 normal
I:percmap e e 63 normal
I:percmap g g 76 normal
V:3 perc nm="Basses" snm="B"
K:none
I:percmap A A 64 normal
I:percmap B B 60 slash
I:percmap F F 62 normal
I:percmap ^B B 72 x
I:percmap c c 67 normal
I:percmap e e 68 normal
V:4 perc nm="Cymbals" snm="C"
K:none
I:percmap B B 62 normal
I:percmap ^B B 74 x
V:1
!f! !>!A/!>!A/!>!A !^!A!>![AA] !/!A/A/!/!A/A/ !^!A/A/!^!A/A/ | %1
 (6:4:6!>!B/A/A/!>!B/A/A/ !^!A/A/A/!^!A/ A/A/!^!A/A/ A<!>!A | %2
"^A" !>!A[AA] !^!A/AA/ B/A/B/A/ B/A/B/A/ | B/A/B/A/ !^!A/A/A/!^!A/ z/ z !>![AA]!>![AA] z/ | %4
 !>!A[AA] !^!A/AA/ B/A/B/A/ B/A/B/A/ |{/A} A{/A}A/{/A}A/{/A} A3/2{/A}A/ z/ [AA][AA]/ z [AA] | %6
 !^![AA]2 z2 z4 | [AA]2 z2 z4 | [AA]2 z2 z4 | %9
 !>![AA] z/ !>![AA]/ z !>![AA] (6:4:6A/A/A/A/A/A/ (3A/A/A/!^!A/!^!A/ | %10
 B/!>!B/B !>!B/B/B B/!>!B/B !>!B/B/B | B/!>!B/B !>!B/B/B B/!>!B/B !>!B/B/B | %12
 B/!>!B/B !>!B/B/B B/!>!B/B !>!B/B/B | %13
 !>![AA] z/ !>![AA]/ z !>![AA] (6:4:6A/A/A/A/A/A/ (3A/A/A/!^!A/!^!A/ | %14
{/A} !>!A/A/A/{/A}!>!A/ A/A/{/A}!>!A/A/ !^!A!>![AA] B/A/A/B/ | %15
 A/!^!A/A/A/ !^!A/A/A/A/ A/!^!A/A/A/ (6:4:6!^!A/A/A/A/A/A/ | %16
 A/A/A/A/ !^!A/A/A/A/ !/!!>!A/A/A/!/!!>!A/ A/A/!/!!>!A/A/ | %17
 (6:4:6!>!A/A/A/!>!A/A/A/ (6:4:6!>!A/A/A/!>!A/A/A/ (6:4:6A/A/A/A/A/A/ (3A/A/A/!^!A/!^!A/ | %18
 !^!A>!^!A z2 z4 | !^!A>!^!A z2 z4 | !^!A>!^!A (3A{/A}A{/A}A (3!/!AAA A(3A/A/A/ | %21
 !^!A>!^!A z !^!A !^!A/!^!A!^!A z/ !^!A/!^!A/ | !^![AA]2 z2 z4 | z8 | z8 | %25
 F/F/F/F/ F/F/!>!A/!>!A/ !>!A/!>!A/F/F/ F/F/F/F/ | %26
 F/F/F/F/ F/F/!>!A/!>!A/ !>!A/!>!A/F/F/ F/F/F/F/ | %27
 F/F/F/F/ F/F/!>!A/!>!A/ !>!A/!>!A/F/F/ F/F/F/F/ | %28
 B!^!A/!^!A/ z/ !^!A/!^!A/ z/ (6:4:6A/A/A/A/A/A/ !^!A!^!A/!^!A/ | %29
 (6:4:6!>!A/A/A/!>!A/A/A/ (6:4:6!>!A/A/A/!>!A/A/A/ (6:4:6!>!A/A/A/!>!A/A/A/ !^!A/A/A/A/ | %30
[M:5/4] (6:4:6!>!A/A/A/!>!A/A/A/ !/!!>!A/!/!A/!/!A/!/!!>!A/!/!A/!/!A/ (6:4:6!>!A/A/A/!>!A/A/A/ !/!!>!A/!/!A/!/!A/!/!!>!A/!/!A/!/!A/ | %31
 (6:4:6!>!A/A/A/!>!A/A/A/ !/!!>!A/!/!A/!/!A/!/!!>!A/!/!A/!/!A/ !/!!>!A/!/!A/!/!A/!/!!>!A/!/!A/!/!A/ (6:4:6!>!A/A/A/!>!A/A/A/ | %32
[M:4/4]!ff! !/!A/!/!A/!>!A/!/!A/ !/!A/!>!A/!/!A/!/!A/ !>!A/!/!A/!/!A/!>!A/ !/!A/!/!A/!>!A/!>!A/ | %33
 !^!A2 z4 !>!A/4!>!A/4!>!A/4!>!A/4!>!A/!>!A/ | !^!A2 z2 z4 |] %35
V:2
!f! z2 !^!g!>![FA] !^!e/!^!c/!^!e/!^!c/ !^!g/!^!F/!^!g/!^!F/ | %1
 (6:4:6!>!e/c/c/!>!e/c/c/ !^!g>!>![ce] z !>![Ac] z/ !>![FA]3/2 | %2
 !>!Fg/g/ !>!D/e/c/F/ !>!D/c/F/F/ !>!D/!^!F!^!F/ | !>!D/c/c/!^!g/ z2 !>!D/e/c/F/ !>!D/c/F/F/ | %4
 !>!Fc/c/ !>!D/e/A/A/ !>!D/g/F/F/ !>!D/!^!c!^!c/ | !>!D/F/!/!F/F/ !>!D/gc/ !^!gF !>!D/F/F/F/ | %6
 !^!FA/c/ g/F/A/c/ g/c/A/c/ g/F/A/F/ | g/c/g/c/ g/F/g/c/ g/c/g/c/ g/F/g/F/ | %8
 g/c/A/c/ g/F/A/c/ g/c/A/c/ g/F/A/F/ | g/c/g/c/ g/F/g/c/ (6:4:6e/e/e/c/c/c/ (3A/A/A/!^!c/!^!c/ | %10
 !^!FA/c/ g/F/A/c/ g/c/A/c/ g/F/A/F/ | g/c/g/c/ g/F/g/c/ g/c/g/c/ g/F/g/F/ | %12
 g/c/A/c/ g/F/A/c/ g/c/A/c/ g/F/A/F/ | g/c/g/c/ g/F/g/c/ (6:4:6e/e/e/c/c/c/ (3A/A/A/!^!c/!^!c/ | %14
 !^!FA/c/ g/F/A/c/ g/c/A/c/ g/F/A/F/ | g/c/g/c/ g/F/g/c/ g/c/g/c/ g/F/g/F/ | %16
 g/c/A/c/ g/F/A/c/ g/c/A/c/ g/F/A/F/ | g/c/g/c/ g/F/g/c/ (6:4:6e/e/e/c/c/c/ (3A/A/A/!^!c/!^!c/ | %18
 !^!c>!^!c cc/c/ !^!g/A/c/e/ !/!F/!/!A/!/!c/!/!e/ | !^!A>!^!A z2 z4 | !^!A>!^!A z2 z4 | %21
 !^![ce]>!^![ce] z/ !^!c/!^!e !^!A!^!F !^!F/!^!F!^!F/ | !^!F2 z2 z4 | z8 | %24
 g/e/c/A/ F/A/c/e/ g/A/g/e/ c/A/F/A/ | g/e/c/A/ F/A/c/e/ g/A/g/e/ c/A/F/A/ | %26
 !>![AA]3/2{/g}!>!g/ z F/F/ !/!e/c/F/c/ c/F/F/F/ | %27
 A/{/e}ec/ A/{/F}F!^!F/ z/ !^!F/!^!g !/!g/!/!g/!/!g/!/!g/ | %28
 g{/A}!>!A/{/e}!>!e/ z/{/A} !>!A/{/e}!>!e/ z/ (6:4:6e/e/e/c/c/c/ !^!g{/A}!>!A/{/e}!>!e/ | %29
 (6:4:6!>!F/F/F/!>!A/A/A/ (6:4:6!>!c/c/c/!>!e/e/e/ (6:4:6!>!c/c/c/!>!A/A/A/ !^!g/F/F/F/ | %30
[M:5/4] (6:4:6!>!F/F/F/!>!A/A/A/ !/!!>!c/!/!A/!/!c/!/!!>!e/!/!c/!/!A/ (6:4:6!>!c/c/c/!>!e/e/e/ !/!!>!c/!/!A/!/!F/!/!!>!F/!/!A/!/!c/ | %31
 (6:4:6!>!c/c/c/A/A/A/ !/!!>!g/!/!g/!/!g/!/!!>!c/ !/!e/!/!c/ !/!!>!e/!/!c/!/!F/!/!!>!F/!/!F/!/!F/ (6:4:6!>!F/F/F/!>!F/F/F/ | %32
[M:4/4]!ff! !^!F/!^!F/!^!F !^!g/!^!F!^!F/ !^!F/!^!F/!^!F !^!g/!^!F!^!F/ | %33
 !^!c/A/F !>![FA]/!>!e!>!c/ !^!g!>!F !>!F/4!>!F/4!>!F/4!>!F/4!>!F/!>!F/ | %34
 !^!F2 (3z z c (3:2:2c [FA]2 z2 |] %35
V:3
!f! z2 !>!^B!>!B [Ae]/[Fc]/[Ae]/[Fc]/ [Ae]/[Ae]/!>!B | %1
 (6:4:6!>!e/e/e/!>!c/c/c/ !>!e>!>![ce] z !>![Ace] z/ !>!B3/2 | %2
 !>!B2 !>!^BB/B/ ^B/BB/ (6:4:6!>!e/e/e/!>!c/c/c/ | !>!B^B/B/ ^B/BB/ z B ^B/!>!e/!>!e/!>!e/ | %4
 !>!B2 !>!^B!>!B/!>!B/ ^B<!>!B (6:4:6c/c/c/A/A/A/ | %5
 !>!BB/B/ !>!B!>!B (6:4:6e/e/e/c/c/c/ (6:4:6A/A/A/F/F/F/ | !>!B^B ^B>!>!B !>!B/^B^B/ !>!^B2 | %7
 !>!B^B ^B>!>!B !>!B/^B^B/ !>!^B2 | !>!B^B ^B>!>!B !>!B/^B^B/ !>!^B2 | %9
 !>!B z/ !>!B/ z !>!B (6:4:6e/e/e/c/c/c/ (3A/A/A/!>!B/!>!B/ | %10
 !>!B/!>!^BB/ !>!^B>B B/!>!^BB/ !>!^B2 | B/!>!^BB/ !>!^B>B B/!>!^BB/ !>!^B2 | %12
 B/!>!^BB/ !>!^B>B B/!>!^BB/ !>!^B2 | !>!B z/ !>!B/ z !>!B (6:4:6e/e/e/c/c/c/ (3A/A/A/!>!B/!>!B/ | %14
 !>!B^B ^B>!>!B !>!B/^B^B/ !>!^B2 | !>!B^B ^B>!>!B !>!B/^B^B/ !>!^B2 | %16
 !>!B^B ^B>!>!B !>!B/^B^B/ !>!^B2 | !>!B z/ !>!B/ z !>!B (6:4:6e/e/e/c/c/c/ (3A/A/A/!>!B/!>!B/ | %18
 !>!B>!>!B z2 z4 | !>!B>!>!B (6:4:6F/F/F/A/A/A/ (6:4:6e/e/e/c/c/c/ A/A/F/F/ | !>!B>!>!B z2 z4 | %21
 !>!B>!>!B !>!B/!>!B!>!B/ z/ !>!B!>!B/ !>!B!>!B | !>!B/F/A/c/ e/c/A/!>!B/ !>!B/F/A/c/ !>!e/c/A/F/ | %23
 !>!B/F/A/c/ e/c/A/!>!B/ !>!B/F/A/c/ !>!e/c/A/F/ | %24
 !>!B/F/A/c/ e/c/A/!>!B/ !>!B/F/A/c/ !>!e/c/A/F/ | %25
 !>!B/F/A/c/ e/c/A/!>!B/ !>!B/F/A/c/ !>!e/c/A/F/ | !>!B!>!B !>!^BB/B/ !>!^B/BB/ !>!B!>!B | %27
 !>!B!>!B !>!^BB/B/ !>!^B/BB/ !>!B!>!B | !>!B!>!B !>!^BB/B/ (6:4:6e/e/e/c/c/c/ A/A/F/F/ | %29
 (6:4:6F/F/F/A/A/A/ (6:4:6c/c/c/e/e/e/ (6:4:6c/c/c/A/A/A/ !>!B/B/B/B/ | %30
[M:5/4] !>!B!>!B e/e/e/A/A/A/ !>!B!>!B c/c/c/F/F/F/ | !>!B!>!B e/e/e/c/c/c/ A/A/A/F/F/F/ !>!B!>!B | %32
[M:4/4]!ff! !>!BB/B/ !>!^B/!>!B/B/B/ z/ !>!B!>!B/ !>!^BB/B/ | !>!B2 z4 !>!B/!>!B/!>!B/!>!B/ | %34
 !>!B2 z2 z4 |] %35
V:4
!f! z2 z !>!B z4 | z2 !>!B>!>!B z !>!B z/ !>!B3/2 | !>!A2 ^B2 ^B2 ^B2 | ^B2 ^B2 ^B2 ^B2 | %4
 ^B2 ^B2 ^B2 ^B2 | B2 B2 z/ BB/ z B | !>!A2 z2 z4 | z8 | z8 | z8 | z/ B3/2 A2 z/ B3/2 A2 | %11
 z/ B3/2 A2 z/ B3/2 A2 | z/ B3/2 A2 z/ B3/2 A2 | !>!B z/ !>!B/ z !>!B z4 | z/ B3/2 A2 z/ B3/2 A2 | %15
 z/ B3/2 A2 z/ B3/2 A2 | z/ B3/2 A2 z/ B3/2 A2 | !>!B z/ !>!B/ z !>!B z4 | !>!B>!>!A z2 z4 | %19
 !>!B>!>!A z2 z4 | !>!B>!>!A z2 z4 | !>!B>!>!B z !>!B !>!B>!>!B z !>!B | !>!B2 z2 z4 | B2 z2 z4 | %24
 B2 z2 z4 | B2 z2 z4 | z B z B z B z B | z B z B z B z B | z z/ B/ z/ z/ B/ z/ z4 | %29
 B2 B2 !>!B2 !>!B2 |[M:5/4] !>!B!>!B !>!B3/2!>!B3/2 !>!B!>!B !>!B3/2!>!B3/2 | %31
 !>!B!>!B !>!B3/2!>!B3/2 !>!B3/2!>!B3/2 !>!B!>!B |[M:4/4]!ff! !>!B3/2!>!B3/2!>!B3/2!>!B3/2 !>!B2 | %33
 !>!B2 z2 z2 !>!B2 | !>!A2 z2 z4 |] %35

